X:601
T:Flowers of Edinburgh #2, The
C:Joe Buchanan's Scottish Tome - Page 171.2
I:171 2
Z:Carl Allison
R:Reel
L:1/8
M:4/4
K:G
GE | "G"D2 DE G2 GA | "G"BGBd cBAG| "D7"FGFE DEFG | "D7"AFdF "C"E2 EG |
"G"D2 DE G2 GA | "G7"BGBd "C"efge | "G"dcBA "D7"GFGA | "G"B2 G2 G2 :|
((3def) | "G"g2 g2 gbag | "D7"f2 f2 fagf | "Em"e2 ef gfed | "Em"B2 e2 e2 "C"(ge) |
"G"dBGB "G7"d2 d2 | "C"edef "A7"g2 fe | "G"dcBA "D7"GFGA | "G"B2 G2 G2 :|

